src/assets/icons/cars/gasoline.svg

<svg width="48" height="48" viewBox="0 0 48 48" fill="none" xmlns="http://www.w3.org/2000/svg">
<g id="Icons / Vertical Cars / Car engine gasoline">
<g id="Vector">
<path fill-rule="evenodd" clip-rule="evenodd" d="M36.6504 36.8608C36.6504 36.9688 36.5634 37.0558 36.4554 37.0558H14.8454C14.7374 37.0558 14.6504 36.9688 14.6504 36.8608V18.2278L13.2134 16.7908C13.2344 16.7728 13.2604 16.7668 13.2794 16.7468L16.2634 13.7628C16.3104 13.7158 16.3334 13.6568 16.3694 13.6038L17.8224 15.0558H36.4554C36.5634 15.0558 36.6504 15.1428 36.6504 15.2508V36.8608ZM10.5594 14.0558C10.5594 14.0018 10.5784 13.9558 10.6164 13.9178L13.5124 11.0218C13.5504 10.9838 13.5964 10.9648 13.6504 10.9648C13.7044 10.9648 13.7504 10.9838 13.7884 11.0218L15.0094 12.2428C14.9554 12.2788 14.8964 12.3018 14.8494 12.3488L11.8654 15.3328C11.8454 15.3528 11.8394 15.3778 11.8214 15.3988L10.6164 14.1938C10.5784 14.1558 10.5594 14.1098 10.5594 14.0558ZM27.9924 11.0558H34.7444C35.2434 11.0558 35.6504 11.4628 35.6504 11.9618V13.0558H26.1704L27.9924 11.0558ZM37.6504 13.4128V11.9618C37.6504 10.3598 36.3464 9.05584 34.7444 9.05584H27.9924C27.4554 9.05584 26.9504 9.26484 26.5384 9.67884L23.4874 13.0308C23.4814 13.0378 23.4794 13.0478 23.4724 13.0558H18.6504L15.2024 9.60784C14.7734 9.17884 14.2124 8.96484 13.6504 8.96484C13.0884 8.96484 12.5274 9.17884 12.0984 9.60784L9.20244 12.5038C8.34544 13.3608 8.34544 14.7508 9.20244 15.6078L12.6504 19.0558V36.8608C12.6504 38.0728 13.6334 39.0558 14.8454 39.0558H36.4554C37.6674 39.0558 38.6504 38.0728 38.6504 36.8608V15.2508C38.6504 14.4798 38.2514 13.8048 37.6504 13.4128Z" fill="#253238"/>
<path fill-rule="evenodd" clip-rule="evenodd" d="M23.6506 28.0558H27.6506V24.0558H23.6506V28.0558ZM31.5246 21.7628C31.9146 21.3718 31.8316 20.7398 31.4406 20.3488C31.0506 19.9578 30.3756 19.7918 29.9846 20.1818L27.9026 22.0558H23.3976L21.3576 20.1818C20.9666 19.7918 20.3336 19.8748 19.9436 20.2658C19.5526 20.6558 19.3856 21.3308 19.7766 21.7208L21.6506 23.8038V28.3078L19.7766 30.3488C19.3856 30.7398 19.4696 31.3718 19.8596 31.7628C20.0556 31.9578 20.3526 32.0558 20.6086 32.0558C20.8646 32.0558 21.1416 32.1248 21.3366 31.9298L23.3976 30.0558H27.9026L29.9436 31.9298C30.1386 32.1248 30.3946 32.1388 30.6506 32.1388C30.9066 32.1388 31.1626 31.9998 31.3576 31.8048C31.7476 31.4138 31.9146 30.7598 31.5246 30.3698L29.6506 28.3078V23.8038L31.5246 21.7628Z" fill="#253238"/>
</g>
</g>
</svg>

<svg width="48" height="48" viewBox="0 0 48 48" fill="none" xmlns="http://www.w3.org/2000/svg"><g fill-rule="evenodd" clip-rule="evenodd" fill="#253238"><path d="M36.65 36.86a.195.195 0 01-.195.196h-21.61a.195.195 0 01-.195-.195V18.228l-1.437-1.437c.021-.018.047-.024.066-.044l2.984-2.984c.047-.047.07-.106.106-.16l1.453 1.453h18.633c.108 0 .195.087.195.195v21.61zM10.56 14.057c0-.054.018-.1.056-.138l2.896-2.896a.188.188 0 01.138-.057c.054 0 .1.019.138.057l1.221 1.22c-.054.037-.113.06-.16.107l-2.984 2.984c-.02.02-.026.045-.044.066l-1.205-1.205a.188.188 0 01-.057-.138zm17.432-3h6.752c.5 0 .906.407.906.906v1.094h-9.48l1.822-2zm9.658 2.357v-1.451a2.91 2.91 0 00-2.906-2.906h-6.752a2.02 2.02 0 00-1.454.623l-3.05 3.352c-.007.007-.009.017-.016.025H18.65l-3.448-3.448a2.187 2.187 0 00-1.552-.643c-.562 0-1.123.214-1.552.643l-2.896 2.896a2.195 2.195 0 000 3.104l3.448 3.448V36.86c0 1.212.983 2.195 2.195 2.195h21.61a2.195 2.195 0 002.195-2.195V15.25a2.19 2.19 0 00-1-1.838z"/><path d="M23.65 28.056h4v-4h-4v4zm7.875-6.293c.39-.391.307-1.023-.084-1.414-.39-.391-1.065-.557-1.456-.167l-2.082 1.874h-4.505l-2.04-1.874c-.391-.39-1.024-.307-1.414.084-.391.39-.558 1.065-.167 1.455l1.874 2.083v4.504l-1.874 2.04c-.391.392-.307 1.024.083 1.415.196.195.493.293.749.293s.533.069.728-.126l2.06-1.874h4.506l2.04 1.874c.196.195.452.209.708.209.256 0 .512-.14.707-.334.39-.391.557-1.045.167-1.435l-1.874-2.062v-4.504l1.874-2.041z"/></g></svg>
